icons/bookmark-slash-24.svg

<svg xmlns="http://www.w3.org/2000/svg" width="24" height="24" viewBox="0 0 24 24"><path d="M1.565 2.018v-.001l21.75 15.75a.75.75 0 11-.88 1.215L19 16.495v4.764a.748.748 0 01-1.219.584L12 17.21l-5.781 4.634A.75.75 0 015 21.259V6.357L.685 3.232a.75.75 0 01.88-1.214zM17.5 15.408l-11-7.965v12.254l5.031-4.032a.749.749 0 01.938 0l5.031 4.032zM7.25 2a.75.75 0 000 1.5h10a.25.25 0 01.25.25v6.5a.75.75 0 001.5 0v-6.5A1.75 1.75 0 0017.25 2h-10z"/></svg>

<svg xmlns="http://www.w3.org/2000/svg" width="24" height="24" viewBox="0 0 24 24">
  <defs/>
  <path d="M1.565,2.018 L1.565,2.017 L23.315,17.767 C23.651,18.01 23.726,18.479 23.483,18.815 C23.239,19.15 22.771,19.225 22.435,18.982 L19,16.495 L19,21.259 C19,21.547 18.834,21.81 18.574,21.934 C18.314,22.059 18.006,22.023 17.781,21.843 L12,17.21 L6.219,21.844 C5.994,22.024 5.685,22.06 5.426,21.935 C5.166,21.81 5,21.547 5,21.259 L5,6.357 L0.685,3.232 C0.363,2.985 0.297,2.526 0.535,2.197 C0.773,1.869 1.23,1.789 1.565,2.018 Z M17.5,15.408 L6.5,7.443 L6.5,19.697 L11.531,15.665 C11.805,15.445 12.195,15.445 12.469,15.665 L17.5,19.697 Z"/>
  <path d="M7.25,2 A0.75 0.75 0 0 0 7.25,3.5 L17.25,3.5 A0.25 0.25 0 0 1 17.5,3.75 L17.5,10.25 A0.75 0.75 0 0 0 19,10.25 L19,3.75 A1.75 1.75 0 0 0 17.25,2 L7.25,2 Z"/>
</svg>
